src/img/ok.svg

<svg class="svg_soc" width="22" height="22" viewBox="0 0 22 22" fill="none" xmlns="http://www.w3.org/2000/svg">
<path d="M1.9077 3.7921C2.95807 3.78828 3.79464 2.94451 3.79081 1.89189C3.78698 0.838814 2.94862 0.00090158 1.8978 1.3245e-06C0.838195 -0.001124 -0.00804467 0.852318 5.76295e-05 1.91484C0.00793487 2.96364 0.853951 3.79593 1.9077 3.7921Z" transform="translate(9.10266 5.32471)" fill="white"/>
<path d="M11 0C4.92485 0 0 4.92507 0 11C0 17.0749 4.92485 22 11 22C17.0752 22 22 17.0749 22 11C22 4.92507 17.0752 0 11 0ZM11.0158 3.34513C13.1584 3.35098 14.8781 5.10355 14.867 7.26979C14.8562 9.38607 13.1084 11.1013 10.9694 11.0941C8.85221 11.0869 7.11585 9.3316 7.12845 7.21105C7.14038 5.06732 8.87765 3.33927 11.0158 3.34513ZM15.3554 12.6164C14.8817 13.1028 14.3114 13.4548 13.678 13.7003C13.0794 13.9324 12.4233 14.0492 11.7738 14.127C11.8721 14.2337 11.9183 14.2862 11.9795 14.3474C12.8608 15.2335 13.7465 16.115 14.6249 17.0036C14.9242 17.3065 14.9866 17.6819 14.8218 18.0337C14.642 18.4186 14.2384 18.6715 13.8426 18.6443C13.5918 18.627 13.3963 18.5025 13.2227 18.3276C12.5574 17.6583 11.8795 17.0009 11.2282 16.3189C11.038 16.1204 10.9471 16.1582 10.7794 16.3306C10.1103 17.0198 9.43018 17.6979 8.74621 18.3724C8.439 18.6754 8.07349 18.7303 7.71699 18.557C7.33821 18.3738 7.09739 17.9869 7.11585 17.5977C7.1289 17.3353 7.25809 17.1341 7.43859 16.9545C8.31116 16.0837 9.18103 15.2103 10.0511 14.3375C10.109 14.2796 10.1625 14.2182 10.2465 14.1282C9.05972 14.0042 7.98954 13.712 7.07331 12.9956C6.95943 12.9065 6.84217 12.8205 6.73864 12.7206C6.33735 12.3355 6.29706 11.8942 6.61418 11.44C6.88583 11.0511 7.34136 10.9471 7.81512 11.1706C7.90695 11.2136 7.99427 11.2681 8.07799 11.3257C9.78533 12.4989 12.1309 12.5311 13.845 11.3781C14.0147 11.2485 14.1964 11.1418 14.4068 11.088C14.8155 10.9827 15.1972 11.1332 15.4164 11.4911C15.6674 11.9 15.6644 12.2988 15.3554 12.6164Z" fill="white"/>
<style>
.svg_soc:hover{
	cursor: pointer;
	opacity: 1;
}
.svg_soc{
	cursor: pointer;
	opacity: 0.3;
}
</style>
</svg>

<svg width="22" height="22" viewBox="0 0 22 22" fill="none" xmlns="http://www.w3.org/2000/svg"><path d="M11.01 9.117a1.883 1.883 0 0 0 1.883-1.9A1.887 1.887 0 0 0 11 5.325 1.89 1.89 0 0 0 9.103 7.24a1.887 1.887 0 0 0 1.907 1.877z" fill="#fff" fill-opacity=".2"/><path d="M11 0C4.925 0 0 4.925 0 11s4.925 11 11 11 11-4.925 11-11S17.075 0 11 0zm.016 3.345c2.142.006 3.862 1.759 3.851 3.925-.01 2.116-1.759 3.831-3.898 3.824-2.117-.007-3.853-1.762-3.84-3.883a3.88 3.88 0 0 1 3.887-3.866zm4.34 9.271a4.654 4.654 0 0 1-1.678 1.084c-.599.232-1.255.35-1.904.427.098.107.144.16.206.22.88.886 1.766 1.768 2.645 2.657.3.302.362.678.197 1.03-.18.385-.584.638-.98.61-.25-.017-.446-.141-.62-.316-.665-.67-1.342-1.327-1.994-2.01-.19-.198-.28-.16-.449.013-.669.689-1.349 1.367-2.033 2.041-.307.303-.673.358-1.029.185-.379-.183-.62-.57-.601-.96.013-.262.142-.463.323-.643.872-.87 1.742-1.744 2.612-2.617.058-.057.111-.119.195-.209-1.186-.124-2.256-.416-3.173-1.132-.114-.09-.23-.176-.334-.275-.402-.386-.442-.827-.125-1.281.272-.389.727-.493 1.201-.27.092.044.18.098.263.156 1.707 1.173 4.053 1.205 5.767.052.17-.13.351-.236.562-.29a.881.881 0 0 1 1.01.403c.25.409.247.808-.062 1.125z" fill="#fff" fill-opacity=".2"/></svg>
